kwork_juristConsalt/img/svg/tgIcon.svg

<svg width="36" height="36" viewBox="0 0 36 36" fill="none" xmlns="http://www.w3.org/2000/svg">
<path d="M36 18C36 22.7739 34.1036 27.3523 30.7279 30.7279C27.3523 34.1036 22.7739 36 18 36C13.2261 36 8.64773 34.1036 5.27208 30.7279C1.89642 27.3523 0 22.7739 0 18C0 13.2261 1.89642 8.64773 5.27208 5.27208C8.64773 1.89642 13.2261 0 18 0C22.7739 0 27.3523 1.89642 30.7279 5.27208C34.1036 8.64773 36 13.2261 36 18ZM18.6458 13.2885C16.8952 14.0175 13.3942 15.525 8.14725 17.811C7.29675 18.1485 6.849 18.4815 6.8085 18.8055C6.741 19.3522 7.42725 19.5683 8.361 19.863L8.75475 19.9868C9.67275 20.286 10.9102 20.6348 11.5515 20.6483C12.1365 20.6618 12.7867 20.4233 13.5045 19.9283C18.4072 16.6185 20.9385 14.9467 21.096 14.9107C21.2085 14.8837 21.366 14.8523 21.4695 14.9468C21.5752 15.039 21.564 15.2168 21.5528 15.264C21.4853 15.5542 18.792 18.0562 17.3993 19.3522C16.965 19.7572 16.6567 20.043 16.5938 20.1082C16.455 20.25 16.314 20.3895 16.1707 20.5268C15.3157 21.3503 14.6768 21.9668 16.2045 22.9748C16.9403 23.4608 17.5298 23.859 18.117 24.2595C18.756 24.696 19.395 25.1303 20.223 25.6748C20.4322 25.8098 20.6348 25.956 20.8305 26.0955C21.5753 26.6265 22.248 27.1035 23.0737 27.027C23.5553 26.982 24.0525 26.532 24.3045 25.182C24.9007 21.9938 26.073 15.0885 26.343 12.2423C26.3595 12.0056 26.3497 11.7679 26.3137 11.5335C26.2926 11.3443 26.201 11.17 26.0573 11.0452C25.8525 10.9039 25.6085 10.8307 25.3597 10.836C24.6847 10.8472 23.643 11.2095 18.6458 13.2885Z" fill="#40B3E0"/>
</svg>

<svg width="36" height="36" fill="none" xmlns="http://www.w3.org/2000/svg"><path d="M36 18a18 18 0 11-36 0 18 18 0 0136 0zm-17.354-4.711c-1.75.729-5.252 2.236-10.499 4.522-.85.337-1.298.67-1.338.994-.068.547.618.763 1.552 1.058l.394.124c.918.299 2.155.648 2.796.661.585.014 1.236-.225 1.954-.72 4.902-3.31 7.434-4.981 7.591-5.017.113-.027.27-.059.373.036.106.092.095.27.084.317-.068.29-2.761 2.792-4.154 4.088-.434.405-.742.691-.805.756-.139.142-.28.282-.423.419-.855.823-1.494 1.44.034 2.448.735.486 1.325.884 1.912 1.284.639.437 1.278.871 2.106 1.416.21.135.412.281.608.42.744.532 1.417 1.009 2.243.932.481-.045.978-.495 1.23-1.845.597-3.188 1.769-10.093 2.039-12.94a3.202 3.202 0 00-.03-.709.758.758 0 00-.256-.488 1.184 1.184 0 00-.697-.209c-.675.011-1.717.373-6.714 2.453z" fill="#40B3E0"/></svg>
